Gruvbox-Material-Icons/places/scalable/folder-blue-publicshare-open.svg

<svg width="256" height="256" style="isolation:isolate" version="1.1" viewBox="0 0 256 256" xmlns="http://www.w3.org/2000/svg">
  <path d="m53.7 21c-36.32 0-40.04 2.055-40.04 38.37v92.17h230v-71.98c0-36.32-3.724-42.1-40.04-42.1h-89.34l-16.43-16.46h-44.16z" fill="#458588"/>
  <g filter="url(#tFIgwHupMHyMb9vxp4mAwQMCINkEulLb)">
    <path d="m40.77 56.67h176.1c5.758 0 10.43 4.675 10.43 10.43v83.47c0 5.758-4.675 10.43-10.43 10.43h-176.1c-5.759 0-10.43-4.675-10.43-10.43v-83.47c0-5.758 4.675-10.43 10.43-10.43z" fill="#ebdbb2"/>
  </g>
  <path d="m53.7 100.4c-36.32 0-40.04 3.73-40.04 40.04v54.52c0 36.32 3.721 40.05 40.04 40.05h149.9c36.32 0 40.04-3.731 40.04-40.05v-70.98c0-36.32-3.722-40.05-40.04-40.05h-83.43l-16.44 16.46h-50.05z" fill="#83a598"/>
  <linearGradient id="_lgradient_8" x2="0" y1=".5" y2="-.5" gradientTransform="matrix(230 0 0 151.1 13.67 83.92)" gradientUnits="userSpaceOnUse">
    <stop stop-color="#ebdbb2" stop-opacity=".07" offset="0"/>
    <stop stop-color="#ebdbb2" stop-opacity="0" offset=".6728"/>
  </linearGradient>
  <path d="m53.7 100.4c-36.32 0-40.04 3.73-40.04 40.04v54.52c0 36.32 3.721 40.05 40.04 40.05h149.9c36.32 0 40.04-3.731 40.04-40.05v-70.98c0-36.32-3.722-40.05-40.04-40.05h-83.43l-16.44 16.46h-50.05z" fill="url(#_lgradient_8)"/>
  <g opacity=".4">
    <radialGradient id="_rgradient_16" cx=".5" cy=".5" r=".272" fy=".136" gradientTransform="matrix(230 0 0 60.62 13.67 21)" gradientUnits="userSpaceOnUse">
      <stop stop-color="#ebdbb2" offset="0"/>
      <stop stop-color="#ebdbb2" stop-opacity=".204" offset="1"/>
    </radialGradient>
    <path d="m53.7 21c-36.32 0-40.04 2.055-40.04 38.37v2.059c0-36.32 3.723-38.37 40.04-38.37h44.16l16.43 16.46h89.34c36.32 0 40.04 5.786 40.04 42.1v-2.057c0-36.32-3.724-42.1-40.04-42.1h-89.34l-16.43-16.46h-44.16z" fill="url(#_rgradient_16)"/>
    <radialGradient id="_rgradient_17" cx=".5" cy=".5" r=".272" fx=".482" fy=".211" gradientTransform="matrix(230 0 0 58.56 13.67 83.92)" gradientUnits="userSpaceOnUse">
      <stop stop-color="#ebdbb2" offset="0"/>
      <stop stop-color="#ebdbb2" stop-opacity=".204" offset="1"/>
    </radialGradient>
    <path d="m120.2 83.92-16.44 16.46h-50.05c-36.32 0-40.04 3.728-40.04 40.04v2.06c0-36.32 3.723-40.05 40.04-40.05h50.05l16.44-16.46h83.43c36.32 0 40.04 3.727 40.04 40.04v-2.057c0-36.32-3.724-40.04-40.04-40.04h-83.43z" fill="url(#_rgradient_17)"/>
  </g>
  <g opacity=".1">
    <path d="m243.7 167.1-65.72 65.84h25.68c36.32 0 40.04-3.727 40.04-40.04v-25.8z" fill="#ebdbb2"/>
  </g>
  <g opacity=".2">
    <path d="m13.67 192.9v2.057c0 36.32 3.723 40.04 40.04 40.04h149.9c36.32 0 40.04-3.729 40.04-40.04v-2.057c0 36.32-3.724 40.04-40.04 40.04h-149.9c-36.32 0-40.04-3.727-40.04-40.04z"/>
  </g>
  <path d="m128 114c-3.527 0-6.88 0.653-9.96 1.967-3.067 1.253-5.787 3.086-8.047 5.466l-0.013 0.027-0.013 0.013c-2.2 2.394-3.907 5.267-5.107 8.534-1.234 3.419-1.844 7.032-1.8 10.67 0 3.867 0.58 7.48 1.8 10.75 1.2 3.213 2.907 6.053 5.107 8.44l0.013 0.013 0.013 0.014c2.254 2.372 4.954 4.239 8.007 5.545l0.027 0.014 0.026 0.013c3.08 1.253 6.427 1.873 9.947 1.873s6.853-0.62 9.933-1.873v-0.013c3.007-1.273 5.711-3.167 7.934-5.559 2.266-2.387 4-5.24 5.2-8.467 1.233-3.267 1.813-6.873 1.813-10.75h0.053c0-3.82-0.58-7.394-1.8-10.65-1.129-3.177-2.899-6.088-5.2-8.553-2.221-2.395-4.944-4.271-7.973-5.493-3.152-1.325-6.541-1.994-9.96-1.967zm0 6.667c2.707 0 5.133 0.486 7.347 1.433l0.066 0.027 0.067 0.013c2.2 0.9 4.047 2.173 5.58 3.84v0.067c1.6 1.686 2.873 3.76 3.793 6.266v0.034c0.867 2.34 1.294 5.02 1.327 8.013v0.307c0 3.213-0.48 6-1.38 8.413v0.013c-0.832 2.305-2.125 4.417-3.8 6.207l-0.067 0.027v0.026c-1.56 1.687-3.426 3-5.653 3.96-2.316 0.918-4.789 1.377-7.28 1.353-2.733 0-5.18-0.479-7.4-1.379h-0.02c-2.167-0.934-4-2.247-5.587-3.88l-0.34-0.467-0.053-0.04c-1.509-1.706-2.693-3.674-3.493-5.807-0.961-2.703-1.429-5.558-1.38-8.426 0-3.14 0.473-5.907 1.38-8.334l0.013-0.013v-0.027c0.92-2.506 2.167-4.56 3.7-6.24l0.08-0.066c1.6-1.667 3.467-2.954 5.667-3.854l0.04-0.026 0.053-0.014c2.2-0.933 4.633-1.426 7.34-1.426zm46.67 93.33h-6.667c0-5.767-0.467-8.667-1.567-12.22s-2.733-6.027-5.426-8.067c-5.4-4.066-14.07-6.22-32.81-6.22-18.75 0-27.77 2.147-33.17 6.22-2.7 2.034-4.334 4.507-5.44 8.067-1.107 3.56-1.574 6.453-1.587 12.22l-6.667-0.013c0.014-6.094 0.46-9.6 1.887-14.19s3.96-8.513 7.793-11.41c7.667-5.78 17.97-7.56 37.18-7.56 19.21 0 29.17 1.78 36.83 7.567 3.826 2.893 6.353 6.827 7.773 11.41 1.427 4.587 1.867 8.087 1.867 14.19z" fill="#d5c4a1"/>
</svg>

<svg xmlns="http://www.w3.org/2000/svg" style="isolation:isolate" width="256" height="256" viewBox="0 0 256 256">
 <g>
  <path fill="#458588" d="M 53.705 21 C 17.39 21 13.667 23.055 13.667 59.371 L 13.667 151.538 L 243.667 151.538 L 243.667 79.563 C 243.667 43.247 239.943 37.461 203.628 37.461 L 114.292 37.461 L 97.864 21 L 53.705 21 Z"/>
  <defs>
   <filter id="tFIgwHupMHyMb9vxp4mAwQMCINkEulLb" width="400%" height="400%" x="-200%" y="-200%" color-interpolation-filters="sRGB" filterUnits="objectBoundingBox">
    <feGaussianBlur xmlns="http://www.w3.org/2000/svg" in="SourceGraphic" stdDeviation="4.294"/>
    <feOffset xmlns="http://www.w3.org/2000/svg" dx="0" dy="0" result="pf_100_offsetBlur"/>
    <feFlood xmlns="http://www.w3.org/2000/svg" flood-opacity=".4"/>
    <feComposite xmlns="http://www.w3.org/2000/svg" in2="pf_100_offsetBlur" operator="in" result="pf_100_dropShadow"/>
    <feBlend xmlns="http://www.w3.org/2000/svg" in="SourceGraphic" in2="pf_100_dropShadow" mode="normal"/>
   </filter>
  </defs>
  <g filter="url(#tFIgwHupMHyMb9vxp4mAwQMCINkEulLb)">
   <path fill="#ebdbb2" d="M 40.767 56.667 L 216.9 56.667 C 222.658 56.667 227.333 61.342 227.333 67.1 L 227.333 150.567 C 227.333 156.325 222.658 161 216.9 161 L 40.767 161 C 35.008 161 30.333 156.325 30.333 150.567 L 30.333 67.1 C 30.333 61.342 35.008 56.667 40.767 56.667 Z"/>
  </g>
  <path fill="#83a598" d="M 53.705 100.384 C 17.388 100.384 13.667 104.114 13.667 140.429 L 13.667 194.953 C 13.667 231.269 17.388 235 53.705 235 L 203.628 235 C 239.945 235 243.667 231.269 243.667 194.953 L 243.667 123.969 C 243.667 87.653 239.945 83.922 203.628 83.922 L 120.197 83.922 L 103.759 100.384 L 53.705 100.384 Z"/>
  <linearGradient id="_lgradient_8" x1="0" x2="0" y1=".5" y2="-.5" gradientTransform="matrix(230,0,0,151.078,13.667,83.922)" gradientUnits="userSpaceOnUse">
   <stop offset="0%" stop-opacity=".07" style="stop-color:#ebdbb2"/>
   <stop offset="67.282%" stop-opacity="0" style="stop-color:#ebdbb2"/>
  </linearGradient>
  <path fill="url(#_lgradient_8)" d="M 53.705 100.384 C 17.388 100.384 13.667 104.114 13.667 140.429 L 13.667 194.953 C 13.667 231.269 17.388 235 53.705 235 L 203.628 235 C 239.945 235 243.667 231.269 243.667 194.953 L 243.667 123.969 C 243.667 87.653 239.945 83.922 203.628 83.922 L 120.197 83.922 L 103.759 100.384 L 53.705 100.384 Z"/>
  <g opacity=".4">
   <radialGradient id="_rgradient_16" cx=".5" cy=".5" r=".272" fx=".5" fy=".136" gradientTransform="matrix(230,0,0,60.62,13.667,21)" gradientUnits="userSpaceOnUse">
    <stop offset="0%" style="stop-color:#ebdbb2"/>
    <stop offset="100%" stop-opacity=".204" style="stop-color:#ebdbb2"/>
   </radialGradient>
   <path fill="url(#_rgradient_16)" d="M 53.705 21 C 17.39 21 13.667 23.055 13.667 59.371 L 13.667 61.43 C 13.667 25.114 17.39 23.057 53.705 23.057 L 97.864 23.057 L 114.292 39.518 L 203.628 39.518 C 239.943 39.518 243.667 45.304 243.667 81.62 L 243.667 79.563 C 243.667 43.247 239.943 37.461 203.628 37.461 L 114.292 37.461 L 97.864 21 L 53.705 21 Z"/>
  </g>
  <g opacity=".4">
   <radialGradient id="_rgradient_17" cx=".5" cy=".5" r=".272" fx=".482" fy=".211" gradientTransform="matrix(230,0,0,58.565,13.667,83.922)" gradientUnits="userSpaceOnUse">
    <stop offset="0%" style="stop-color:#ebdbb2"/>
    <stop offset="100%" stop-opacity=".204" style="stop-color:#ebdbb2"/>
   </radialGradient>
   <path fill="url(#_rgradient_17)" d="M 120.197 83.922 L 103.759 100.384 L 53.705 100.384 C 17.39 100.384 13.667 104.112 13.667 140.427 L 13.667 142.487 C 13.667 106.171 17.39 102.441 53.705 102.441 L 103.759 102.441 L 120.197 85.981 L 203.628 85.981 C 239.943 85.981 243.667 89.708 243.667 126.024 L 243.667 123.967 C 243.667 87.651 239.943 83.922 203.628 83.922 L 120.197 83.922 Z"/>
  </g>
  <g opacity=".1">
   <path fill="#ebdbb2" d="M 243.667 167.096 L 177.952 232.941 L 203.628 232.941 C 239.943 232.941 243.667 229.214 243.667 192.898 L 243.667 167.096 Z"/>
  </g>
  <g opacity=".2">
   <path d="M 13.667 192.898 L 13.667 194.955 C 13.667 231.271 17.39 235 53.705 235 L 203.628 235 C 239.943 235 243.667 231.271 243.667 194.955 L 243.667 192.898 C 243.667 229.214 239.943 232.941 203.628 232.941 L 53.705 232.941 C 17.39 232.941 13.667 229.214 13.667 192.898 Z"/>
  </g>
 </g>
 <path fill="#d5c4a1" d="M 128 114.001 C 124.473 114.001 121.12 114.654 118.04 115.968 C 114.973 117.221 112.253 119.054 109.993 121.434 L 109.98 121.461 L 109.967 121.474 C 107.767 123.868 106.06 126.741 104.86 130.008 C 103.626 133.427 103.016 137.04 103.06 140.674 C 103.06 144.541 103.64 148.154 104.86 151.421 C 106.06 154.634 107.767 157.474 109.967 159.861 L 109.98 159.874 L 109.993 159.888 C 112.247 162.26 114.947 164.127 118 165.433 L 118.027 165.447 L 118.053 165.46 C 121.133 166.713 124.48 167.333 128 167.333 C 131.52 167.333 134.853 166.713 137.933 165.46 L 137.933 165.447 C 140.94 164.174 143.644 162.28 145.867 159.888 C 148.133 157.501 149.867 154.648 151.067 151.421 C 152.3 148.154 152.88 144.548 152.88 140.668 L 152.933 140.668 C 152.933 136.848 152.353 133.274 151.133 130.014 C 150.004 126.837 148.234 123.926 145.933 121.461 C 143.712 119.066 140.989 117.19 137.96 115.968 C 134.808 114.643 131.419 113.974 128 114.001 L 128 114.001 Z M 128 120.668 C 130.707 120.668 133.133 121.154 135.347 122.101 L 135.413 122.128 L 135.48 122.141 C 137.68 123.041 139.527 124.314 141.06 125.981 L 141.06 126.048 C 142.66 127.734 143.933 129.808 144.853 132.314 L 144.853 132.348 C 145.72 134.688 146.147 137.368 146.18 140.361 L 146.18 140.668 C 146.18 143.881 145.7 146.668 144.8 149.081 L 144.8 149.094 C 143.968 151.399 142.675 153.511 141 155.301 L 140.933 155.328 L 140.933 155.354 C 139.373 157.041 137.507 158.354 135.28 159.314 C 132.964 160.232 130.491 160.691 128 160.667 C 125.267 160.667 122.82 160.188 120.6 159.288 L 120.58 159.288 C 118.413 158.354 116.58 157.041 114.993 155.408 L 114.653 154.941 L 114.6 154.901 C 113.091 153.195 111.907 151.227 111.107 149.094 C 110.146 146.391 109.678 143.536 109.727 140.668 C 109.727 137.528 110.2 134.761 111.107 132.334 L 111.12 132.321 L 111.12 132.294 C 112.04 129.788 113.287 127.734 114.82 126.054 L 114.9 125.988 C 116.5 124.321 118.367 123.034 120.567 122.134 L 120.607 122.108 L 120.66 122.094 C 122.86 121.161 125.293 120.668 128 120.668 Z M 174.667 214 L 168 214 C 168 208.233 167.533 205.333 166.433 201.78 C 165.333 198.227 163.7 195.753 161.007 193.713 C 155.607 189.647 146.94 187.493 128.193 187.493 C 109.44 187.493 100.427 189.64 95.027 193.713 C 92.327 195.747 90.693 198.22 89.587 201.78 C 88.48 205.34 88.013 208.233 88 214 L 81.333 213.987 C 81.347 207.893 81.793 204.387 83.22 199.8 C 84.647 195.213 87.18 191.287 91.013 188.393 C 98.68 182.613 108.98 180.833 128.193 180.833 C 147.4 180.833 157.367 182.613 165.027 188.4 C 168.853 191.293 171.38 195.227 172.8 199.813 C 174.227 204.4 174.667 207.9 174.667 214 Z"/>
</svg>
